X: 33354
T: Queen Of The Earth, Child Of The Skies
R: reel
M: 4/4
K: Dmajor
B4 A2G2|F2G2 ABc2|d3c dcAF|G4GEFE|D2 E2 F2 G2|A3B A2 G2|F2 D2 D4|D8|
B4 A2G2|F2G2 ABc2|d3e dc A2|f4fgfe|d3c A2 F2|G3B A2 G2|F2 D2 D4|D8:|
d3e f2 g2|a3g agf2|g3f g2a2|g4gefe|d3e f2 g2|a3g a2g2|f2 d2 d3e|d6 e/f/g|
a4 agf2|g4 g4|f3e d2 d2|f4fefe|d3c A2 F2|G3B A2 G2|F2 D2 D4|D8:|

